dist/img/advantages/advantage-2.svg

<svg width="55" height="55" viewBox="0 0 55 55" fill="none" xmlns="http://www.w3.org/2000/svg">
<circle cx="27.2432" cy="27.2432" r="27.2432" fill="url(#paint0_linear_1_175)"/>
<g clip-path="url(#clip0_1_175)">
<path d="M18.8479 22.6014L20.9207 20.5287L22.9933 22.6014C23.149 22.7571 23.3531 22.8349 23.5572 22.8349C23.7613 22.8349 23.9654 22.7571 24.1211 22.6014C24.4325 22.29 24.4325 21.785 24.1211 21.4736L22.0485 19.4009L24.1212 17.3283C24.4326 17.0168 24.4326 16.5119 24.1212 16.2004C23.8096 15.889 23.3048 15.889 22.9933 16.2004L20.9207 18.273L18.8479 16.2003C18.5364 15.889 18.0316 15.889 17.7201 16.2003C17.4086 16.5118 17.4086 17.0167 17.7201 17.3282L19.7927 19.4008L17.7202 21.4736C17.4087 21.785 17.4087 22.29 17.7202 22.6014C17.8759 22.7571 18.0799 22.8349 18.284 22.8349C18.4882 22.8349 18.6922 22.7571 18.8479 22.6014Z" fill="white"/>
<path d="M34.6671 32.0199C34.3555 31.7085 33.8507 31.7085 33.5392 32.0199L31.4666 34.0925L29.3938 32.0199C29.0823 31.7085 28.5775 31.7085 28.266 32.0199C27.9545 32.3314 27.9545 32.8363 28.266 33.1478L30.3387 35.2204L28.266 37.2931C27.9545 37.6046 27.9545 38.1095 28.266 38.421C28.4217 38.5766 28.6257 38.6545 28.8299 38.6545C29.034 38.6545 29.238 38.5766 29.3937 38.421L31.4665 36.3483L33.5391 38.4209C33.6948 38.5765 33.8989 38.6544 34.103 38.6544C34.3071 38.6544 34.5112 38.5765 34.6669 38.4209C34.9783 38.1094 34.9783 37.6045 34.6669 37.293L32.5942 35.2204L34.6669 33.1478C34.9785 32.8363 34.9785 32.3313 34.6671 32.0199Z" fill="white"/>
<path d="M34.7297 20.8373L31.5136 18.0416C31.1812 17.7525 30.6775 17.788 30.3886 18.1203C30.0996 18.4527 30.1349 18.9563 30.4673 19.2453L32.1729 20.7279C27.1388 21.3864 24.1582 24.017 22.5012 26.2406C20.9704 28.2948 20.2995 30.3159 20.058 31.2069C20.2171 31.1858 20.3791 31.1737 20.5439 31.1737C20.9392 31.1737 21.3197 31.2373 21.6768 31.3535C21.943 30.4759 22.5656 28.8064 23.8185 27.1423C25.8925 24.3876 28.7736 22.7653 32.3981 22.3039L30.8089 24.1321C30.5199 24.4646 30.5552 24.9682 30.8876 25.2571C31.0386 25.3885 31.225 25.4528 31.4104 25.4528C31.6333 25.4528 31.8549 25.3598 32.0126 25.1784L34.8083 21.9623C35.0973 21.6299 35.0621 21.1263 34.7297 20.8373Z" fill="white"/>
<path d="M20.843 32.8108C19.5436 32.8108 18.4865 33.8679 18.4865 35.1673C18.4865 36.4667 19.5436 37.5238 20.843 37.5238C22.1424 37.5238 23.1995 36.4667 23.1995 35.1673C23.1995 33.8679 22.1424 32.8108 20.843 32.8108Z" fill="white"/>
<path d="M40.1301 18.9275C38.8307 18.9275 37.7735 19.9846 37.7735 21.284C37.7735 22.5834 38.8306 23.6405 40.1301 23.6405C41.4294 23.6405 42.4866 22.5835 42.4866 21.284C42.4866 19.9846 41.4295 18.9275 40.1301 18.9275Z" fill="white"/>
</g>
<defs>
<linearGradient id="paint0_linear_1_175" x1="-1.86401" y1="2.56551" x2="37.7377" y2="62.1307" gradientUnits="userSpaceOnUse">
<stop stop-color="#FDFDFD" stop-opacity="0.5"/>
<stop offset="1" stop-color="#A3D7F4" stop-opacity="0.1"/>
</linearGradient>
<clipPath id="clip0_1_175">
<rect width="25" height="25" fill="white" transform="translate(17.4865 14.8108)"/>
</clipPath>
</defs>
</svg>

<svg width="55" height="55" fill="none" xmlns="http://www.w3.org/2000/svg"><circle cx="27.243" cy="27.243" r="27.243" fill="url(#a)"/><g clip-path="url(#b)" fill="#fff"><path d="m18.848 22.601 2.073-2.072 2.072 2.072a.795.795 0 0 0 1.128 0 .798.798 0 0 0 0-1.127L22.05 19.4l2.072-2.073a.798.798 0 0 0-1.128-1.128l-2.072 2.073-2.073-2.073a.798.798 0 0 0-1.128 1.128l2.073 2.073-2.073 2.073a.797.797 0 1 0 1.128 1.127Zm15.819 9.419a.798.798 0 0 0-1.128 0l-2.072 2.072-2.073-2.072a.798.798 0 0 0-1.128 1.128l2.073 2.072-2.073 2.073a.797.797 0 0 0 1.128 1.128l2.073-2.073 2.072 2.073a.795.795 0 0 0 1.128 0 .798.798 0 0 0 0-1.128l-2.073-2.073 2.073-2.072a.797.797 0 0 0 0-1.128Zm.063-11.183-3.216-2.795a.797.797 0 1 0-1.047 1.203l1.706 1.483c-5.034.658-8.015 3.289-9.672 5.513-1.53 2.054-2.202 4.075-2.443 4.966a3.654 3.654 0 0 1 1.619.147 13.86 13.86 0 0 1 2.142-4.212c2.073-2.754 4.955-4.377 8.58-4.838l-1.59 1.828a.797.797 0 1 0 1.204 1.046l2.795-3.216a.797.797 0 0 0-.078-1.125ZM20.843 32.81a2.36 2.36 0 0 0-2.357 2.357 2.36 2.36 0 0 0 2.357 2.357 2.36 2.36 0 0 0 2.357-2.357 2.36 2.36 0 0 0-2.357-2.356ZM40.13 18.927a2.36 2.36 0 0 0-2.357 2.357 2.36 2.36 0 0 0 2.357 2.357 2.36 2.36 0 0 0 2.357-2.357 2.36 2.36 0 0 0-2.357-2.357Z"/></g><defs><linearGradient id="a" x1="-1.864" y1="2.566" x2="37.738" y2="62.131" gradientUnits="userSpaceOnUse"><stop stop-color="#FDFDFD" stop-opacity=".5"/><stop offset="1" stop-color="#A3D7F4" stop-opacity=".1"/></linearGradient><clipPath id="b"><path fill="#fff" transform="translate(17.486 14.81)" d="M0 0h25v25H0z"/></clipPath></defs></svg>
